;FLAVOR:Marlin
;TIME:8991
;Filament used: 8.84281m
;Layer height: 0.2
;MINX:49.6
;MINY:18.12
;MINZ:0.2
;MAXX:144.464
;MAXY:107.051
;MAXZ:21.51
;Generated with Cura_SteamEngine 99.9.1-Arachne_engine_beta
M140 S90
M105
M190 S90
M104 S210
M105
M109 S210
M82 ;absolute extrusion mode
G28 ;Home
;M92 X79.67
;M92 Y79.40
G1 Z15.0 F6000 ;Move the platform down 15mm
;Prime the extruder
G92 E0
G1 F200 E3
G92 E0
G92 E0
G92 E0
G1 F2100 E-8
;LAYER_COUNT:94
;LAYER:0
M106 S255
G0 F3600 X104.784 Y22.087 Z0.2
G0 X105.568 Y22.248
;TYPE:SKIRT
G1 F2100 E0
G1 F1050 X105.687 Y21.746 E0.0326
G1 X105.874 Y21.255 E0.06581
G1 X106.123 Y20.793 E0.09897
G1 X106.431 Y20.368 E0.13214
G1 X106.787 Y19.991 E0.16491
G1 X107.198 Y19.658 E0.19834
G1 X107.628 Y19.393 E0.23026
G1 X108.129 Y19.168 E0.26496
G1 X108.854 Y18.976 E0.31236
G1 X109.527 Y18.922 E0.35502
G1 X139.673 Y18.92 E2.26008
G1 X140.338 Y18.98 E2.30227
G1 X140.837 Y19.099 E2.33469
G1 X141.331 Y19.287 E2.36809
G1 X141.789 Y19.535 E2.40101
G1 X142.216 Y19.843 E2.43428
G1 X142.593 Y20.201 E2.46713
G1 X142.922 Y20.605 E2.50006
G1 X143.192 Y21.043 E2.53257
G1 X143.414 Y21.538 E2.56686
G1 X143.607 Y22.266 E2.61445
G1 X143.659 Y22.78 E2.6471
G1 X143.664 Y98.24 E7.41574
G1 X143.603 Y98.905 E7.45794
G1 X143.484 Y99.404 E7.49036
G1 X143.299 Y99.892 E7.52334
G1 X143.046 Y100.361 E7.55701
G1 X142.743 Y100.778 E7.58959
G1 X142.379 Y101.164 E7.62311
G1 X141.982 Y101.486 E7.65542
G1 X141.535 Y101.762 E7.68862
G1 X141.049 Y101.98 E7.72228
G1 X140.566 Y102.125 E7.75414
G1 X140.023 Y102.212 E7.7889
G1 X139.582 Y102.231 E7.81679
G1 X109.354 Y102.226 E9.72703
G1 X108.833 Y102.171 E9.76013
G1 X108.325 Y102.049 E9.79315
G1 X107.841 Y101.863 E9.82592
G1 X107.381 Y101.615 E9.85894
G1 X106.959 Y101.309 E9.89188
G1 X106.571 Y100.943 E9.92559
G1 X106.251 Y100.547 E9.95776
G1 X105.975 Y100.1 E9.99096
G1 X105.756 Y99.609 E10.02494
G1 X105.564 Y98.886 E10.07221
G1 X105.512 Y98.363 E10.10542
G1 X105.508 Y22.91 E14.87362
G1 X105.568 Y22.248 E14.91563
G0 F3600 X104.784 Y22.087
G1 F1050 X104.93 Y21.487 E14.95465
G1 X105.157 Y20.898 E14.99454
G1 X105.46 Y20.345 E15.03439
G1 X105.832 Y19.837 E15.07418
G1 X106.263 Y19.387 E15.11355
G1 X106.759 Y18.989 E15.15374
G1 X107.272 Y18.676 E15.19172
G1 X107.879 Y18.407 E15.23368
G1 X108.448 Y18.242 E15.27111
G1 X109.12 Y18.14 E15.31407
G1 X109.619 Y18.12 E15.34563
G1 X139.673 Y18.12 E17.24487
G1 X140.5 Y18.197 E17.29735
G1 X141.096 Y18.342 E17.33612
G1 X141.689 Y18.572 E17.37631
G1 X142.236 Y18.871 E17.41571
G1 X142.747 Y19.245 E17.45572
G1 X143.198 Y19.677 E17.49519
G1 X143.589 Y20.163 E17.53461
G1 X143.91 Y20.689 E17.57355
G1 X144.175 Y21.288 E17.61494
G1 X144.341 Y21.86 E17.65258
G1 X144.439 Y22.466 E17.69137
G1 X144.464 Y22.919 E17.72004
G1 X144.464 Y98.24 E22.4799
G1 X144.386 Y99.067 E22.53239
G1 X144.241 Y99.663 E22.57115
G1 X144.016 Y100.248 E22.61076
G1 X143.708 Y100.811 E22.65132
G1 X143.343 Y101.307 E22.69023
G1 X142.902 Y101.769 E22.73059
G1 X142.425 Y102.152 E22.76925
G1 X141.887 Y102.481 E22.8091
G1 X141.301 Y102.739 E22.84957
G1 X140.723 Y102.909 E22.88764
G1 X140.062 Y103.011 E22.92991
G1 X139.582 Y103.031 E22.96026
G1 X109.499 Y103.031 E24.86134
G1 X108.671 Y102.954 E24.91389
G1 X108.063 Y102.804 E24.95346
G1 X107.484 Y102.58 E24.99269
G1 X106.933 Y102.278 E25.0324
G1 X106.429 Y101.909 E25.07188
G1 X105.965 Y101.465 E25.11246
G1 X105.584 Y100.989 E25.15099
G1 X105.256 Y100.452 E25.19075
G1 X104.995 Y99.859 E25.2317
G1 X104.83 Y99.292 E25.26901
G1 X104.731 Y98.674 E25.30857
G1 X104.708 Y98.232 E25.33654
G1 X104.708 Y22.91 E30.09645
G1 X104.784 Y22.087 E30.14868
G0 F3600 X106.311 Y22.823
G1 F1050 X106.405 Y22.151 E30.19156
G1 X106.59 Y21.611 E30.22764
G1 X106.934 Y21.022 E30.27074
G1 X107.312 Y20.595 E30.30678
G1 X107.857 Y20.182 E30.34999
G1 X108.378 Y19.928 E30.38662
G1 X109.012 Y19.76 E30.42807
G1 X109.564 Y19.721 E30.46304
G1 X139.673 Y19.72 E32.36575
G1 X140.176 Y19.764 E32.39766
G1 X140.825 Y19.94 E32.44016
G1 X141.342 Y20.198 E32.47667
G1 X141.879 Y20.614 E32.5196
G1 X142.255 Y21.047 E32.55584
G1 X142.59 Y21.63 E32.59833
G1 X142.773 Y22.175 E32.63466
G1 X142.861 Y22.836 E32.6768
G1 X142.864 Y98.24 E37.4419
G1 X142.819 Y98.743 E37.47381
G1 X142.643 Y99.392 E37.51631
G1 X142.384 Y99.912 E37.55302
G1 X141.972 Y100.443 E37.59549
G1 X141.539 Y100.82 E37.63177
G1 X140.947 Y101.16 E37.67491
G1 X140.408 Y101.341 E37.71085
G1 X139.983 Y101.413 E37.73809
G1 X139.582 Y101.431 E37.76345
G1 X109.412 Y101.428 E39.67002
G1 X108.738 Y101.334 E39.71303
G1 X108.197 Y101.147 E39.7492
G1 X107.61 Y100.804 E39.79216
G1 X107.177 Y100.421 E39.8287
G1 X106.771 Y99.885 E39.87119
G1 X106.516 Y99.36 E39.90807
G1 X106.349 Y98.728 E39.94938
G1 X106.308 Y98.232 E39.98083
G1 X106.311 Y22.823 E44.74625
G0 F3600 X107.109 Y22.881
G1 F1050 X107.188 Y22.312 E44.78255
G1 X107.422 Y21.735 E44.8219
G1 X107.8 Y21.236 E44.86146
G1 X108.296 Y20.851 E44.90114
G1 X108.874 Y20.607 E44.94078
G1 X109.23 Y20.537 E44.96371
G1 X109.601 Y20.52 E44.98718
G1 X139.673 Y20.52 E46.88756
G1 X140.272 Y20.6 E46.92575
G1 X140.85 Y20.835 E46.96518
G1 X141.348 Y21.213 E47.00469
G1 X141.733 Y21.707 E47.04427
G1 X141.976 Y22.286 E47.08395
G1 X142.063 Y22.891 E47.12257
G1 X142.063 Y98.271 E51.88616
G1 X141.983 Y98.839 E51.92241
G1 X141.749 Y99.416 E51.96175
G1 X141.372 Y99.914 E52.00123
G1 X140.878 Y100.299 E52.0408
G1 X140.298 Y100.544 E52.08059
G1 X139.943 Y100.614 E52.10346
G1 X139.602 Y100.631 E52.12503
G1 X109.47 Y100.63 E54.0292
G1 X108.899 Y100.551 E54.06563
G1 X108.323 Y100.316 E54.10494
G1 X107.821 Y99.937 E54.14469
G1 X107.438 Y99.442 E54.18425
G1 X107.195 Y98.864 E54.22387
G1 X107.109 Y98.258 E54.26255
G1 X107.109 Y22.881 E59.02594
G1 F2100 E51.02594
G0 F3600 X106.844 Y22.886
G0 X89.233 Y25.877
G1 F2100 E59.02594
G1 F1050 X89.333 Y26.497 E59.06563
G1 X89.356 Y26.939 E59.0936
G1 X89.355 Y102.262 E63.85358
G1 X89.281 Y103.079 E63.90542
G1 X89.13 Y103.695 E63.9455
G1 X88.901 Y104.282 E63.98532
G1 X88.607 Y104.82 E64.02406
G1 X88.23 Y105.336 E64.06445
G1 X87.793 Y105.791 E64.10431
G1 X87.308 Y106.179 E64.14356
G1 X86.774 Y106.504 E64.18307
G1 X86.185 Y106.763 E64.22373
G1 X85.619 Y106.928 E64.26099
G1 X85.003 Y107.028 E64.30042
G1 X84.562 Y107.051 E64.32833
G1 X54.389 Y107.05 E66.23509
G1 X53.568 Y106.975 E66.28719
G1 X52.949 Y106.823 E66.32747
G1 X52.366 Y106.595 E66.36703
G1 X51.831 Y106.302 E66.40557
G1 X51.315 Y105.925 E66.44596
G1 X50.863 Y105.492 E66.48551
G1 X50.467 Y104.997 E66.52557
G1 X50.148 Y104.471 E66.56445
G1 X49.888 Y103.881 E66.60519
G1 X49.722 Y103.312 E66.64265
G1 X49.623 Y102.694 E66.6822
G1 X49.6 Y102.252 E66.71017
G1 X49.601 Y26.929 E71.47015
G1 X49.675 Y26.11 E71.52212
G1 X49.826 Y25.497 E71.56201
G1 X50.053 Y24.914 E71.60155
G1 X50.352 Y24.367 E71.64095
G1 X50.726 Y23.856 E71.68096
G1 X51.158 Y23.405 E71.72043
G1 X51.644 Y23.014 E71.75985
G1 X52.178 Y22.689 E71.79935
G1 X52.77 Y22.428 E71.84024
G1 X53.341 Y22.262 E71.87781
G1 X54.02 Y22.16 E71.92121
G1 X54.535 Y22.14 E71.95377
G1 X84.567 Y22.141 E73.85162
G1 X85.401 Y22.218 E73.90455
G1 X86.006 Y22.369 E73.94396
G1 X86.576 Y22.59 E73.98259
G1 X87.137 Y22.897 E74.023
G1 X87.633 Y23.262 E74.06192
G1 X88.09 Y23.697 E74.10179
G1 X88.484 Y24.188 E74.14158
G1 X88.807 Y24.718 E74.1808
G1 X89.067 Y25.308 E74.22154
G1 X89.233 Y25.877 E74.259
G0 F3600 X88.307 Y25.558
G1 F1050 X88.499 Y26.283 E74.30639
G1 X88.552 Y26.808 E74.33974
G1 X88.555 Y102.262 E79.108
G1 X88.497 Y102.92 E79.14974
G1 X88.375 Y103.433 E79.18307
G1 X88.186 Y103.923 E79.21625
G1 X87.943 Y104.374 E79.24863
G1 X87.632 Y104.805 E79.28222
G1 X87.27 Y105.186 E79.31543
G1 X86.867 Y105.512 E79.34818
G1 X86.423 Y105.785 E79.38112
G1 X85.935 Y106.003 E79.4149
G1 X85.213 Y106.194 E79.46209
G1 X84.696 Y106.247 E79.49494
G1 X54.389 Y106.25 E81.41016
G1 X53.728 Y106.191 E81.4521
G1 X53.212 Y106.068 E81.48562
G1 X52.725 Y105.88 E81.51861
G1 X52.277 Y105.638 E81.55079
G1 X51.846 Y105.326 E81.58442
G1 X51.467 Y104.967 E81.6174
G1 X51.136 Y104.558 E81.65065
G1 X50.867 Y104.119 E81.68319
G1 X50.648 Y103.631 E81.71699
G1 X50.456 Y102.906 E81.76439
G1 X50.404 Y102.383 E81.7976
G1 X50.401 Y26.929 E86.56586
G1 X50.459 Y26.269 E86.60773
G1 X50.581 Y25.759 E86.64087
G1 X50.768 Y25.272 E86.67383
G1 X51.016 Y24.814 E86.70675
G1 X51.324 Y24.387 E86.74002
G1 X51.682 Y24.01 E86.77287
G1 X52.086 Y23.681 E86.8058
G1 X52.53 Y23.408 E86.83874
G1 X53.02 Y23.188 E86.87268
G1 X53.747 Y22.996 E86.9202
G1 X54.449 Y22.942 E86.96469
G1 X84.705 Y22.946 E88.8767
G1 X85.237 Y23.001 E88.9105
G1 X85.743 Y23.124 E88.9434
G1 X86.22 Y23.307 E88.97569
G1 X86.687 Y23.559 E89.00922
G1 X87.104 Y23.862 E89.0418
G1 X87.486 Y24.221 E89.07492
G1 X87.817 Y24.629 E89.10813
G1 X88.088 Y25.07 E89.14084
G1 X88.307 Y25.558 E89.17464
G0 F3600 X87.547 Y25.809
G1 F1050 X87.715 Y26.442 E89.21602
G1 X87.756 Y26.939 E89.24754
G1 X87.752 Y102.345 E94.01276
G1 X87.661 Y103.017 E94.05562
G1 X87.471 Y103.564 E94.09221
G1 X87.131 Y104.147 E94.13486
G1 X86.747 Y104.58 E94.17144
G1 X86.208 Y104.988 E94.21415
G1 X85.684 Y105.243 E94.25098
G1 X85.054 Y105.41 E94.29217
G1 X84.562 Y105.451 E94.32337
G1 X54.306 Y105.447 E96.23537
G1 X53.629 Y105.355 E96.27855
G1 X53.084 Y105.165 E96.31502
G1 X52.504 Y104.826 E96.35748
G1 X52.071 Y104.443 E96.39401
G1 X51.66 Y103.898 E96.43715
G1 X51.408 Y103.38 E96.47355
G1 X51.241 Y102.748 E96.51486
G1 X51.2 Y102.252 E96.54631
G1 X51.204 Y26.846 E101.31153
G1 X51.295 Y26.174 E101.35439
G1 X51.484 Y25.629 E101.39084
G1 X51.826 Y25.043 E101.43372
G1 X52.206 Y24.614 E101.46994
G1 X52.747 Y24.203 E101.51287
G1 X53.271 Y23.948 E101.5497
G1 X53.905 Y23.78 E101.59115
G1 X54.483 Y23.741 E101.62775
G1 X84.65 Y23.744 E103.53414
G1 X85.331 Y23.838 E103.57758
G1 X85.865 Y24.024 E103.61331
G1 X86.456 Y24.369 E103.65656
G1 X86.882 Y24.746 E103.69251
G1 X87.293 Y25.288 E103.73549
G1 X87.547 Y25.809 E103.77212
G0 F3600 X86.626 Y25.729
G1 F1050 X86.869 Y26.308 E103.8118
G1 X86.955 Y26.913 E103.85042
G1 X86.954 Y102.29 E108.61381
G1 X86.877 Y102.858 E108.65004
G1 X86.639 Y103.438 E108.68965
G1 X86.262 Y103.937 E108.72918
G1 X85.767 Y104.321 E108.76877
G1 X85.188 Y104.564 E108.80845
G1 X84.589 Y104.65 E108.84669
G1 X54.361 Y104.649 E110.75693
G1 X53.79 Y104.571 E110.79334
G1 X53.212 Y104.334 E110.83282
G1 X52.713 Y103.956 E110.87238
G1 X52.329 Y103.459 E110.91207
G1 X52.087 Y102.884 E110.9515
G1 X52.001 Y102.278 E110.99018
G1 X52.002 Y26.901 E115.75357
G1 X52.079 Y26.334 E115.78973
G1 X52.316 Y25.753 E115.82938
G1 X52.694 Y25.255 E115.86889
G1 X53.188 Y24.87 E115.90847
G1 X53.767 Y24.627 E115.94815
G1 X54.124 Y24.557 E115.97114
G1 X54.535 Y24.54 E115.99714
G1 X84.595 Y24.542 E117.89676
G1 X85.167 Y24.621 E117.93325
G1 X85.742 Y24.856 E117.9725
G1 X86.24 Y25.233 E118.01197
G1 X86.626 Y25.729 E118.05169
G1 F2100 E110.05169
;MESH:Bottom case.3mf
G0 F3600 X53.85 Y103.19
G0 X53.594 Y103.627
;TYPE:WALL-OUTER
G1 F2100 E118.05169
G1 F1050 X53.976 Y103.789 E118.07791
G1 X54.418 Y103.85 E118.10611
G1 X84.547 Y103.851 E120.01009
G1 X84.749 Y103.837 E120.02288
G1 X85.175 Y103.722 E120.05077
G1 X85.337 Y103.643 E120.06216
G1 X85.679 Y103.385 E120.08923
G1 X85.934 Y103.055 E120.11558
G1 X86.094 Y102.675 E120.14164
G1 X86.155 Y102.233 E120.16984
G1 X86.155 Y26.966 E124.92628
G1 X86.105 Y26.549 E124.95282
G1 X85.941 Y26.149 E124.98014
G1 X85.69 Y25.817 E125.00644
G1 X85.362 Y25.564 E125.03262
G1 X84.979 Y25.402 E125.0589
G1 X84.54 Y25.342 E125.0869
G1 X54.554 Y25.341 E126.98184
G1 X54.004 Y25.393 E127.01675
G1 X53.609 Y25.555 E127.04373
G1 X53.276 Y25.806 E127.07009
G1 X53.024 Y26.134 E127.09622
G1 X52.862 Y26.517 E127.1225
G1 X52.802 Y26.958 E127.15063
G1 X52.801 Y102.225 E131.90707
G1 X52.851 Y102.643 E131.93367
G1 X53.015 Y103.042 E131.96094
G1 X53.264 Y103.374 E131.98716
G1 X53.594 Y103.627 E132.01344
G0 F3600 X53.963 Y103.783
G0 X54.47 Y103.09
;TYPE:SKIN
G1 F1050 X84.491 Y103.091 E133.91059
G1 X84.889 Y103.006 E133.93631
G1 X85.146 Y102.83 E133.956
G1 X85.273 Y102.666 E133.9691
G1 X85.353 Y102.474 E133.98225
G1 X85.395 Y102.179 E134.00108
G1 X85.395 Y27.012 E138.7512
G1 X85.361 Y26.739 E138.76859
G1 X85.276 Y26.531 E138.78279
G1 X85.147 Y26.36 E138.79632
G1 X84.972 Y26.226 E138.81025
G1 X84.777 Y26.143 E138.82364
G1 X84.486 Y26.102 E138.84222
G1 X54.591 Y26.102 E140.73141
G1 X54.187 Y26.14 E140.75705
G1 X53.992 Y26.22 E140.77037
G1 X53.815 Y26.353 E140.78436
G1 X53.685 Y26.523 E140.79789
G1 X53.603 Y26.717 E140.8112
G1 X53.562 Y27.011 E140.82996
G1 X53.562 Y102.179 E145.58014
G1 X53.595 Y102.451 E145.59746
G1 X53.681 Y102.661 E145.6118
G1 X53.81 Y102.833 E145.62538
G1 X53.983 Y102.966 E145.63917
G1 X54.178 Y103.048 E145.65254
G1 X54.47 Y103.09 E145.67118
G0 F3600 X54.87 Y103.09
G0 X53.962 Y101.479
G1 F1050 X55.171 Y102.688 E145.77923
G0 F3600 X56.302 Y102.688
G1 F1050 X53.962 Y100.348 E145.98836
G0 F3600 X53.962 Y99.216
G1 F1050 X57.434 Y102.688 E146.29865
G0 F3600 X58.565 Y102.688
G1 F1050 X53.962 Y98.085 E146.71002
G0 F3600 X53.962 Y96.954
G1 F1050 X59.696 Y102.688 E147.22247
G0 F3600 X60.828 Y102.688
G1 F1050 X53.962 Y95.822 E147.83609
G0 F3600 X53.962 Y94.691
G1 F1050 X61.959 Y102.688 E148.55078
G0 F3600 X63.09 Y102.688
G1 F1050 X53.962 Y93.56 E149.36655
G0 F3600 X53.962 Y92.428
G1 F1050 X64.222 Y102.688 E150.28349
G0 F3600 X65.353 Y102.688
G1 F1050 X53.962 Y91.297 E151.3015
G0 F3600 X53.962 Y90.166
G1 F1050 X66.485 Y102.688 E152.42064
G0 F3600 X67.616 Y102.688
G1 F1050 X53.962 Y89.035 E153.64086
G0 F3600 X53.962 Y87.903
G1 F1050 X68.747 Y102.688 E154.9622
G0 F3600 X69.879 Y102.688
G1 F1050 X53.962 Y86.772 E156.38466
G0 F3600 X53.962 Y85.641
G1 F1050 X71.01 Y102.688 E157.90819
G0 F3600 X72.141 Y102.688
G1 F1050 X53.962 Y84.509 E159.53286
G0 F3600 X53.962 Y83.378
G1 F1050 X73.273 Y102.688 E161.25864
G0 F3600 X74.404 Y102.688
G1 F1050 X53.962 Y82.247 E163.0855
G0 F3600 X53.962 Y81.115
G1 F1050 X75.535 Y102.688 E165.01348
G0 F3600 X76.667 Y102.688
G1 F1050 X53.962 Y79.984 E167.04259
G0 F3600 X53.962 Y78.853
G1 F1050 X77.798 Y102.688 E169.17277
G0 F3600 X78.93 Y102.688
G1 F1050 X53.962 Y77.721 E171.40412
G0 F3600 X53.963 Y76.59
G1 F1050 X80.061 Y102.688 E173.7365
G0 F3600 X81.192 Y102.688
G1 F1050 X53.963 Y75.459 E176.16996
G0 F3600 X53.963 Y74.328
G1 F1050 X82.324 Y102.688 E178.70455
G0 F3600 X83.455 Y102.688
G1 F1050 X53.963 Y73.196 E181.34025
G0 F3600 X53.963 Y72.065
G1 F1050 X84.557 Y102.659 E184.07444
G0 F3600 X84.994 Y101.965
G1 F1050 X53.963 Y70.934 E186.84769
G0 F3600 X53.963 Y69.802
G1 F1050 X84.994 Y100.834 E189.62098
G0 F3600 X84.994 Y99.702
G1 F1050 X53.963 Y68.671 E192.39422
G0 F3600 X53.963 Y67.54
G1 F1050 X84.994 Y98.571 E195.16747
G0 F3600 X84.994 Y97.44
G1 F1050 X53.963 Y66.408 E197.94076
G0 F3600 X53.963 Y65.277
G1 F1050 X84.994 Y96.308 E200.71401
G0 F3600 X84.994 Y95.177
G1 F1050 X53.964 Y64.146 E203.48721
G0 F3600 X53.964 Y63.015
G1 F1050 X84.994 Y94.045 E206.26036
G0 F3600 X84.994 Y92.914
G1 F1050 X53.964 Y61.883 E209.03357
G0 F3600 X53.964 Y60.752
G1 F1050 X84.994 Y91.783 E211.80677
G0 F3600 X84.994 Y90.651
G1 F1050 X53.964 Y59.621 E214.57992
G0 F3600 X53.964 Y58.489
G1 F1050 X84.994 Y89.52 E217.35312
G0 F3600 X84.994 Y88.389
G1 F1050 X53.964 Y57.358 E220.12633
G0 F3600 X53.964 Y56.227
G1 F1050 X84.994 Y87.257 E222.89948
G0 F3600 X84.994 Y86.126
G1 F1050 X53.964 Y55.095 E225.67268
G0 F3600 X53.964 Y53.964
G1 F1050 X84.994 Y84.994 E228.44584
G0 F3600 X84.994 Y83.863
G1 F1050 X53.964 Y52.832 E231.21904
G0 F3600 X53.964 Y51.702
G1 F1050 X84.994 Y82.732 E233.9922
G0 F3600 X84.994 Y81.6
G1 F1050 X53.964 Y50.57 E236.76535
G0 F3600 X53.964 Y49.439
G1 F1050 X84.994 Y80.469 E239.53851
