;FLAVOR:Marlin
;TIME:7182
;Filament used: 8.677m
;Layer height: 0.2
;MINX:36.445
;MINY:19.017
;MINZ:0.2
;MAXX:121.451
;MAXY:100.704
;MAXZ:21.67
;Generated with Cura_SteamEngine 99.9.1-Arachne_engine_beta
M140 S90
M105
M190 S90
M104 S210
M105
M109 S210
M82 ;absolute extrusion mode
G28 ;Home
;M92 X79.67
;M92 Y79.40
G1 Z15.0 F6000 ;Move the platform down 15mm
;Prime the extruder
G92 E0
G1 F200 E3
G92 E0
G92 E0
G92 E0
G1 F2100 E-8
;LAYER_COUNT:108
;LAYER:0
M106 S255
;MESH:Top case.3mf
G0 F3600 X36.807 Y25.068 Z0.2
;TYPE:WALL-OUTER
G1 F2100 E0
G1 F1500 X36.913 Y25.149 E0.0125
G1 X37.434 Y25.478 E0.05236
G1 X37.504 Y25.532 E0.05795
G1 X38.001 Y25.908 E0.09733
G1 X38.076 Y25.953 E0.10286
G1 X38.617 Y26.199 E0.14042
G1 X38.698 Y26.226 E0.14581
G1 X39.308 Y26.359 E0.18527
G1 X39.396 Y26.368 E0.19086
G1 X39.986 Y26.365 E0.22814
G1 X40.072 Y26.356 E0.23361
G1 X40.653 Y26.226 E0.27123
G1 X40.697 Y26.213 E0.27413
G1 X40.734 Y26.199 E0.27663
G1 X41.298 Y25.938 E0.3159
G1 X41.352 Y25.907 E0.31984
G1 X41.846 Y25.53 E0.35911
G1 X41.891 Y25.49 E0.36291
G1 X42.052 Y25.3 E0.37865
G1 X42.324 Y24.974 E0.40548
G1 X42.356 Y24.923 E0.40928
G1 X42.65 Y24.362 E0.44931
G1 X42.665 Y24.316 E0.45237
G1 X42.827 Y23.714 E0.49176
G1 X42.84 Y23.63 E0.49714
G1 X42.869 Y23.037 E0.53465
G1 X42.864 Y22.951 E0.5401
G1 X42.768 Y22.37 E0.57731
G1 X42.745 Y22.287 E0.58275
G1 X42.513 Y21.708 E0.62217
G1 X42.472 Y21.63 E0.62774
G1 X42.135 Y21.138 E0.66543
G1 X42.078 Y21.073 E0.67089
G1 X41.625 Y20.646 E0.71033
G1 X41.566 Y20.575 E0.71649
G1 X41.087 Y20.191 E0.76586
G0 F3600 X42.171 Y20.525
G0 X43.062 Y21.823
G0 X43.309 Y23.22
G0 X37.02 Y93
G0 X36.731 Y93.883
G1 F1500 X37.164 Y93.459 E0.80751
G1 X37.246 Y93.413 E0.81347
G1 X37.696 Y92.98 E0.85293
G1 X37.766 Y92.926 E0.85852
G1 X38.27 Y92.62 E0.89578
G1 X38.349 Y92.583 E0.90129
G1 X38.941 Y92.382 E0.9408
G1 X39.024 Y92.363 E0.94618
G1 X39.613 Y92.295 E0.98365
G1 X39.703 Y92.295 E0.98934
G1 X40.322 Y92.363 E1.02869
G1 X40.403 Y92.38 E1.03392
G1 X40.951 Y92.559 E1.07035
G1 X40.996 Y92.577 E1.07342
G1 X41.031 Y92.595 E1.0759
G1 X41.576 Y92.919 E1.11597
G1 X41.624 Y92.958 E1.11988
G1 X42.09 Y93.395 E1.16025
G1 X42.122 Y93.432 E1.16334
G1 X42.472 Y93.941 E1.20238
G1 X42.499 Y93.989 E1.20586
G1 X42.513 Y94.019 E1.20795
G1 X42.745 Y94.598 E1.24737
G1 X42.758 Y94.636 E1.24991
G1 X42.768 Y94.681 E1.25282
G1 X42.864 Y95.262 E1.29003
G1 X42.869 Y95.348 E1.29548
G1 X42.84 Y95.941 E1.333
G1 X42.827 Y96.026 E1.33843
G1 X42.665 Y96.627 E1.37777
G1 X42.632 Y96.71 E1.38341
G1 X42.356 Y97.234 E1.42084
G1 X42.309 Y97.305 E1.42622
G1 X41.909 Y97.781 E1.46551
G1 X41.857 Y97.856 E1.47154
G1 X41.474 Y98.336 E1.52654
G1 X41.412 Y98.403 E1.53505
G0 F3600 X42.17 Y98.149
G0 X43.033 Y96.906
G0 X63.124 Y23.073
G0 X63.634 Y23.072
G1 F750 X63.638 Y22.985 E1.54056
G1 X63.736 Y22.372 E1.57979
G1 X63.759 Y22.289 E1.58523
G1 X63.977 Y21.736 E1.62279
G1 X64.017 Y21.659 E1.62828
G1 X64.348 Y21.167 E1.66575
G1 X64.402 Y21.103 E1.67104
G1 X64.849 Y20.667 E1.7108
G1 X64.907 Y20.59 E1.71732
G1 X65.363 Y20.204 E1.76659
G0 F3600 X64.336 Y20.526
G0 X63.43 Y21.858
G0 X63.124 Y23.073
G0 X63.634 Y23.072
G1 F1500 X63.668 Y23.667 E1.80425
G1 X63.683 Y23.755 E1.8099
G1 X63.854 Y24.351 E1.84908
G1 X63.869 Y24.394 E1.85196
G1 X63.886 Y24.43 E1.85447
G1 X64.183 Y24.982 E1.89408
G1 X64.2 Y25.005 E1.89589
G1 X64.605 Y25.481 E1.93539
G1 X64.643 Y25.518 E1.93874
G1 X65.157 Y25.908 E1.97951
G1 X65.178 Y25.922 E1.98111
G1 X65.232 Y25.952 E1.98501
G1 X65.773 Y26.199 E2.02259
G1 X65.81 Y26.214 E2.02512
G1 X65.854 Y26.226 E2.028
G1 X66.464 Y26.359 E2.06745
G1 X66.553 Y26.368 E2.07311
G1 X67.143 Y26.365 E2.11039
G1 X67.228 Y26.356 E2.11579
G1 X67.809 Y26.226 E2.15342
G1 X67.89 Y26.198 E2.15883
G1 X68.454 Y25.938 E2.19808
G1 X68.529 Y25.892 E2.20364
G1 X69.001 Y25.53 E2.24123
G1 X69.066 Y25.471 E2.2468
G1 X69.607 Y25.113 E2.30691
G1 X69.706 Y25.036 E2.31927
G0 F3600 X69.483 Y25.678
G0 X69.483 Y92.996
G0 X69.764 Y93.848
G1 F1500 X69.32 Y93.429 E2.36137
G1 X69.235 Y93.384 E2.36745
G1 X68.78 Y92.958 E2.40684
G1 X68.71 Y92.905 E2.41239
G1 X68.188 Y92.595 E2.45075
G1 X68.107 Y92.559 E2.45635
G1 X67.558 Y92.38 E2.49284
G1 X67.478 Y92.363 E2.49801
G1 X66.859 Y92.295 E2.53737
G1 X66.769 Y92.295 E2.54305
G1 X66.18 Y92.363 E2.58052
G1 X66.097 Y92.382 E2.5859
G1 X65.505 Y92.583 E2.62541
G1 X65.461 Y92.601 E2.62842
G1 X65.426 Y92.62 E2.63093
G1 X64.922 Y92.926 E2.66819
G1 X64.881 Y92.954 E2.67133
G1 X64.389 Y93.427 E2.71446
G1 X64.362 Y93.459 E2.71711
G1 X64.018 Y93.97 E2.75603
G1 X63.997 Y94.004 E2.75856
G1 X63.977 Y94.047 E2.76156
G1 X63.759 Y94.6 E2.79912
G1 X63.746 Y94.638 E2.80166
G1 X63.736 Y94.683 E2.80457
G1 X63.639 Y95.296 E2.84379
G1 X63.634 Y95.383 E2.8493
G1 F750 X63.668 Y95.978 E2.88696
G1 X63.683 Y96.066 E2.8926
G1 X63.854 Y96.662 E2.93178
G1 X63.886 Y96.741 E2.93717
G1 X64.167 Y97.265 E2.97475
G1 X64.215 Y97.335 E2.98011
G1 X64.597 Y97.783 E3.01731
G1 X64.659 Y97.844 E3.02284
G1 X65.071 Y98.333 E3.07769
G1 X65.161 Y98.42 E3.089
G1 F1500 X65.756 Y98.549 E3.13161
G1 X65.849 Y98.565 E3.138
G1 X66.473 Y98.632 E3.17379
G1 X66.552 Y98.636 E3.17826
G1 X67.142 Y98.634 E3.21163
G1 X67.219 Y98.63 E3.21604
G1 X67.815 Y98.564 E3.25659
G1 X67.907 Y98.549 E3.26311
G1 X68.207 Y98.483 E3.28786
G1 X68.502 Y98.411 E3.31516
G1 X68.525 Y98.403 E3.31735
G1 X68.643 Y98.352 E3.32931
G1 X68.868 Y98.241 E3.3546
G1 X68.98 Y98.172 E3.36811
G1 X69.154 Y98.04 E3.39057
G1 X69.271 Y97.94 E3.40662
G1 X69.488 Y97.669 E3.44244
G1 X69.627 Y97.441 E3.46826
G1 X69.672 Y97.362 E3.47689
G1 X69.685 Y97.324 E3.48066
G1 X69.8 Y96.965 E3.51222
G1 X69.855 Y96.745 E3.52924
G1 X69.874 Y96.641 E3.53686
G1 X69.957 Y96.018 E3.57389
G1 X69.963 Y95.939 E3.57849
G1 X69.978 Y95.328 E3.61248
G1 X69.975 Y95.27 E3.61573
G1 X69.927 Y94.681 E3.65336
G1 X69.915 Y94.592 E3.65925
G1 X69.794 Y93.969 E3.71299
G1 X69.764 Y93.848 E3.72414
G1 X69.894 Y93.252 E3.7662
G1 X69.93 Y93.083 E3.77712
G1 X69.929 Y25.785 E8.04592
G1 X69.744 Y25.163 E8.10605
G1 X69.706 Y25.036 E8.11911
G1 X69.708 Y25.026 E8.12012
G1 X69.855 Y24.434 E8.16589
G1 X69.874 Y24.33 E8.17351
G1 X69.957 Y23.707 E8.21054
G1 X69.963 Y23.628 E8.21514
G1 X69.978 Y23.017 E8.24913
G1 X69.975 Y22.959 E8.25238
G1 X69.927 Y22.37 E8.29001
G1 X69.915 Y22.281 E8.2959
G1 X69.805 Y21.715 E8.34372
G1 X69.791 Y21.659 E8.34857
G1 X69.755 Y21.544 E8.35912
G1 X69.679 Y21.343 E8.37966
G1 X69.5 Y21.012 E8.418
G1 X69.475 Y20.976 E8.42246
G1 X69.404 Y20.892 E8.43375
G1 X69.273 Y20.746 E8.45439
G1 X69.01 Y20.522 E8.48981
G1 X68.94 Y20.476 E8.49819
G1 X68.821 Y20.408 E8.51155
G1 X68.697 Y20.346 E8.52484
G1 X68.302 Y20.207 E8.55951
G1 X68.243 Y20.191 E8.56442
G1 X68.133 Y20.167 E8.57305
G1 X67.556 Y20.076 E8.60932
G1 X67.476 Y20.067 E8.61421
G1 X66.815 Y20.032 E8.65082
G1 X66.775 Y20.033 E8.65303
G1 X66.182 Y20.067 E8.68916
G1 X66.099 Y20.076 E8.69436
G1 X65.474 Y20.18 E8.74411
G1 X65.386 Y20.197 E8.75143
G1 X65.363 Y20.204 E8.75341
G1 X64.773 Y20.11 E8.79386
G1 X64.615 Y20.086 E8.80403
G1 X63.99 Y20.082 E8.84353
G1 X63.178 Y20.083 E8.89484
G1 X62.257 Y20.082 E8.95304
G1 X59.873 Y20.083 E9.1037
G1 X57.406 Y20.082 E9.2596
G1 X41.847 Y20.084 E10.2453
G1 X41.695 Y20.105 E10.25554
G1 X41.087 Y20.191 E10.30492
G1 X40.977 Y20.167 E10.31355
G1 X40.4 Y20.076 E10.34981
G1 X40.32 Y20.067 E10.35471
G1 X39.659 Y20.032 E10.39131
G1 X39.619 Y20.033 E10.39353
G1 X39.026 Y20.067 E10.42966
G1 X38.943 Y20.076 E10.43485
G1 X38.265 Y20.19 E10.48992
G1 X38.209 Y20.207 E10.49472
G1 X37.831 Y20.336 E10.5329
G1 X37.652 Y20.426 E10.55255
G1 X37.504 Y20.513 E10.57008
G1 X37.238 Y20.74 E10.60693
G1 X37.074 Y20.924 E10.6322
G1 X37.011 Y21 E10.64226
G1 X36.993 Y21.033 E10.64606
G1 X36.84 Y21.317 E10.6771
G1 X36.74 Y21.578 E10.70121
G1 X36.699 Y21.71 E10.71263
G1 F750 X36.589 Y22.284 E10.75095
G1 X36.578 Y22.372 E10.7566
G1 X36.528 Y22.993 E10.79144
G1 X36.526 Y23.069 E10.79567
G1 X36.543 Y23.665 E10.83043
G1 X36.55 Y23.748 E10.83539
G1 X36.637 Y24.368 E10.88128
G1 X36.657 Y24.468 E10.88906
G1 X36.807 Y25.068 E10.95101
G1 F1500 X36.767 Y25.202 E10.96411
G1 X36.584 Y25.791 E11.00401
G1 X36.574 Y25.994 E11.01686
G1 X36.575 Y93.129 E15.27531
G1 X36.608 Y93.29 E15.28661
G1 X36.731 Y93.883 E15.3399
G1 X36.702 Y94 E15.34996
G1 X36.589 Y94.595 E15.38967
G1 X36.578 Y94.683 E15.39531
G1 X36.528 Y95.304 E15.43016
G1 X36.526 Y95.38 E15.43438
G1 X36.543 Y95.976 E15.46914
G1 X36.55 Y96.059 E15.4741
G1 X36.637 Y96.679 E15.52
G1 X36.657 Y96.779 E15.52778
G1 X36.702 Y96.96 E15.54337
G1 X36.821 Y97.335 E15.58072
G1 X36.833 Y97.36 E15.58336
G1 X36.895 Y97.475 E15.59607
G1 X37.009 Y97.661 E15.61848
G1 X37.227 Y97.932 E15.65474
G1 X37.245 Y97.95 E15.65739
G1 X37.347 Y98.039 E15.67133
G1 X37.496 Y98.151 E15.6905
G1 X37.802 Y98.327 E15.72436
G1 X37.892 Y98.363 E15.73325
G1 X38.012 Y98.404 E15.74437
G1 X38.291 Y98.482 E15.76776
G1 X38.6 Y98.549 E15.78989
G1 X38.693 Y98.565 E15.79627
G1 X39.317 Y98.632 E15.83206
G1 X39.396 Y98.636 E15.83654
G1 X39.986 Y98.634 E15.86991
G1 X40.063 Y98.63 E15.87432
G1 X40.659 Y98.564 E15.91486
G1 X40.751 Y98.549 E15.92139
G1 X41.412 Y98.403 E15.98448
G1 X41.504 Y98.425 E15.99296
G1 X42.1 Y98.575 E16.03354
G1 X42.287 Y98.592 E16.04541
G1 X43.769 Y98.593 E16.13906
G1 X64.224 Y98.592 E17.4317
G1 X64.409 Y98.59 E17.44345
G1 X65.032 Y98.449 E17.49825
G1 X65.161 Y98.42 E17.5102
G0 F3600 X64.335 Y98.15
G0 X63.45 Y96.872
G0 X43.614 Y22.821
;TYPE:SKIN
G1 F1500 X43.619 Y22.863 E17.51287
G1 X43.629 Y23.03 E17.52344
G1 X43.629 Y23.074 E17.52622
G1 X43.6 Y23.667 E17.56374
G1 X43.596 Y23.71 E17.56647
G1 X43.572 Y23.863 E17.57626
G1 X43.562 Y23.907 E17.57911
G1 X43.369 Y24.604 E17.62481
G1 X43.355 Y24.647 E17.62767
G1 X43.03 Y25.274 E17.6723
G1 X42.956 Y25.398 E17.68143
G1 X42.92 Y25.448 E17.68532
G1 X42.433 Y26.022 E17.73289
G1 X42.396 Y26.059 E17.7362
G1 X41.838 Y26.493 E17.78087
G1 X41.803 Y26.518 E17.78359
G1 X41.661 Y26.606 E17.79414
G1 X41.616 Y26.63 E17.79737
G1 X40.978 Y26.92 E17.84165
G1 X40.902 Y26.945 E17.84671
G1 X40.246 Y27.096 E17.88925
G1 X40.2 Y27.104 E17.8922
G1 X40.028 Y27.123 E17.90314
G1 X39.987 Y27.125 E17.90573
G1 X39.361 Y27.127 E17.94529
G1 X39.184 Y27.109 E17.95653
G1 X38.541 Y26.972 E17.99808
G1 X38.495 Y26.959 E18.0011
G1 X38.332 Y26.903 E18.01199
G1 X37.761 Y26.646 E18.05156
G1 X37.718 Y26.624 E18.05461
G1 X37.576 Y26.538 E18.0651
G1 X37.542 Y26.515 E18.0677
G1 X37.336 Y26.358 E18.08407
G1 X37.335 Y92.302 E22.25135
G1 X37.369 Y92.276 E22.25405
G1 X37.873 Y91.97 E22.29131
G1 X37.914 Y91.948 E22.29425
G1 X38.064 Y91.879 E22.30469
G1 X38.102 Y91.864 E22.30727
G1 X38.696 Y91.661 E22.34694
G1 X38.738 Y91.649 E22.3497
G1 X38.907 Y91.611 E22.36065
G1 X38.951 Y91.604 E22.36346
G1 X39.528 Y91.54 E22.40015
G1 X39.74 Y91.537 E22.41355
G1 X39.787 Y91.539 E22.41652
G1 X40.405 Y91.607 E22.45581
G1 X40.444 Y91.613 E22.4583
G1 X40.6 Y91.646 E22.46838
G1 X40.643 Y91.658 E22.4712
G1 X41.261 Y91.863 E22.51235
G1 X41.304 Y91.879 E22.51525
G1 X41.338 Y91.897 E22.51768
G1 X41.94 Y92.25 E22.56178
G1 X42.109 Y92.372 E22.57495
G1 X42.148 Y92.405 E22.57818
G1 X42.668 Y92.9 E22.62355
G1 X42.702 Y92.939 E22.62682
G1 X43.113 Y93.533 E22.67246
G1 X43.168 Y93.627 E22.67935
G1 X43.193 Y93.68 E22.68305
G1 X43.462 Y94.349 E22.72862
G1 X43.513 Y94.524 E22.74014
G1 X43.523 Y94.572 E22.74323
G1 X43.619 Y95.174 E22.78176
G1 X43.629 Y95.341 E22.79233
G1 X43.629 Y95.385 E22.79511
G1 X43.6 Y95.978 E22.83263
G1 X43.596 Y96.02 E22.8353
G1 X43.571 Y96.181 E22.84559
G1 X43.561 Y96.226 E22.84851
G1 X43.397 Y96.825 E22.88775
G1 X43.385 Y96.862 E22.89021
G1 X43.312 Y97.048 E22.90284
G1 X43.033 Y97.584 E22.94102
G1 X43.01 Y97.623 E22.94388
G1 X42.918 Y97.76 E22.95431
G1 X42.86 Y97.831 E22.96011
G1 X63.637 Y97.831 E24.27309
G1 X63.612 Y97.798 E24.27571
G1 X63.515 Y97.656 E24.28658
G1 X63.494 Y97.621 E24.28916
G1 X63.215 Y97.101 E24.32645
G1 X63.196 Y97.061 E24.32925
G1 X63.134 Y96.907 E24.33974
G1 X63.121 Y96.867 E24.3424
G1 X62.952 Y96.275 E24.3813
G1 X62.942 Y96.231 E24.38415
G1 X62.914 Y96.063 E24.39492
G1 X62.909 Y96.021 E24.39759
G1 X62.875 Y95.433 E24.43481
G1 X62.875 Y95.387 E24.43772
G1 X62.884 Y95.218 E24.44841
G1 X62.888 Y95.177 E24.45101
G1 X62.985 Y94.564 E24.49023
G1 X62.994 Y94.522 E24.49295
G1 X63.037 Y94.363 E24.50336
G1 X63.052 Y94.318 E24.50636
G1 X63.306 Y93.686 E24.5494
G1 X63.325 Y93.646 E24.5522
G1 X63.717 Y93.056 E24.59696
G1 X63.74 Y93.024 E24.59945
G1 X63.859 Y92.88 E24.61126
G1 X64.417 Y92.354 E24.65972
G1 X64.458 Y92.321 E24.66304
G1 X64.484 Y92.303 E24.66504
G1 X65.094 Y91.934 E24.71009
G1 X65.128 Y91.916 E24.71252
G1 X65.17 Y91.899 E24.71539
G1 X65.85 Y91.662 E24.7609
G1 X65.894 Y91.649 E24.76379
G1 X66.063 Y91.611 E24.77474
G1 X66.106 Y91.604 E24.77749
G1 X66.685 Y91.54 E24.81431
G1 X66.726 Y91.538 E24.8169
G1 X66.896 Y91.537 E24.82764
G1 X66.943 Y91.539 E24.83062
G1 X67.605 Y91.613 E24.87271
G1 X67.798 Y91.657 E24.88522
G1 X68.378 Y91.85 E24.92385
G1 X68.537 Y91.92 E24.93483
G1 X68.58 Y91.943 E24.93791
G1 X69.093 Y92.249 E24.97566
G1 X69.13 Y92.273 E24.97845
G1 X69.17 Y92.303 E24.9816
G1 X69.17 Y26.359 E29.14889
G1 X68.997 Y26.493 E29.16272
G1 X68.961 Y26.517 E29.16545
G1 X68.771 Y26.63 E29.17942
G1 X68.214 Y26.886 E29.21816
G1 X68.016 Y26.957 E29.23145
G1 X67.97 Y26.97 E29.23447
G1 X67.399 Y27.097 E29.27144
G1 X67.357 Y27.104 E29.27413
G1 X67.186 Y27.123 E29.285
G1 X67.143 Y27.125 E29.28772
G1 X66.562 Y27.128 E29.32444
G1 X66.518 Y27.126 E29.32722
G1 X66.34 Y27.108 E29.33853
G1 X66.295 Y27.101 E29.34141
G1 X65.668 Y26.964 E29.38196
G1 X65.578 Y26.938 E29.38788
G1 X65.525 Y26.918 E29.39146
G1 X64.89 Y26.631 E29.4355
G1 X64.761 Y26.558 E29.44487
G1 X64.185 Y26.125 E29.4904
G1 X64.033 Y25.984 E29.50351
G1 X63.559 Y25.414 E29.55035
G1 X63.529 Y25.368 E29.55382
G1 X63.216 Y24.793 E29.5952
G1 X63.195 Y24.748 E29.59833
G1 X63.123 Y24.56 E29.61106
G1 X62.951 Y23.966 E29.65014
G1 X62.941 Y23.918 E29.65323
G1 X62.909 Y23.71 E29.66653
G1 X62.875 Y23.122 E29.70375
G1 X62.875 Y23.079 E29.70647
G1 X62.883 Y22.906 E29.71741
G1 X62.887 Y22.862 E29.72021
G1 X62.983 Y22.258 E29.75886
G1 X62.993 Y22.211 E29.76189
G1 X63.04 Y22.045 E29.77279
G1 X63.266 Y21.462 E29.81231
G1 X63.284 Y21.421 E29.81514
G1 X63.363 Y21.271 E29.82585
G1 X63.385 Y21.234 E29.82857
G1 X63.648 Y20.844 E29.8583
G1 X51.957 Y20.843 E30.5971
G1 X49.662 Y20.844 E30.74213
G1 X42.856 Y20.844 E31.17223
G1 X43.099 Y21.199 E31.19942
G1 X43.121 Y21.235 E31.20208
G1 X43.2 Y21.382 E31.21263
G1 X43.219 Y21.423 E31.21549
G1 X43.448 Y21.999 E31.25466
G1 X43.461 Y22.036 E31.25714
G1 X43.508 Y22.199 E31.26786
G1 X43.518 Y22.244 E31.27077
G1 X43.614 Y22.821 E31.30773
G0 F3600 X43.619 Y22.863
G0 X43.629 Y23.03
G0 X43.629 Y23.074
G0 X43.622 Y23.221
G0 X68.08 Y27.35
G1 F1500 X68.769 Y28.04 E31.36935
G0 F3600 X68.769 Y29.171
G1 F1500 X67.12 Y27.522 E31.51673
G0 F3600 X65.886 Y27.419
G1 F1500 X68.769 Y30.303 E31.77442
G0 F3600 X68.769 Y31.434
G1 F1500 X58.579 Y21.244 E32.68511
G0 F3600 X59.71 Y21.244
G1 F1500 X62.576 Y24.109 E32.9412
G0 F3600 X62.482 Y22.884
G1 F1500 X60.842 Y21.244 E33.08776
G0 F3600 X61.973 Y21.244
G1 F1500 X62.66 Y21.931 E33.14916
G0 F3600 X57.448 Y21.244
G1 F1500 X68.769 Y32.565 E34.16092
G0 F3600 X68.769 Y33.697
G1 F1500 X56.316 Y21.244 E35.27385
G0 F3600 X55.185 Y21.244
G1 F1500 X68.769 Y34.828 E36.48785
G0 F3600 X68.769 Y35.959
G1 F1500 X54.054 Y21.244 E37.80293
G0 F3600 X52.921 Y21.243
G1 F1500 X68.769 Y37.091 E39.21927
G0 F3600 X68.769 Y38.222
G1 F1500 X51.79 Y21.243 E40.73669
G0 F3600 X50.659 Y21.243
G1 F1500 X68.769 Y39.354 E42.35523
G0 F3600 X68.769 Y40.485
